img/email.svg

<svg width="18" height="14" viewBox="0 0 18 14" fill="none" xmlns="http://www.w3.org/2000/svg">
<path d="M15.6667 0.333252H2.33341C1.41675 0.333252 0.675081 1.08325 0.675081 1.99992L0.666748 11.9999C0.666748 12.9166 1.41675 13.6666 2.33341 13.6666H15.6667C16.5834 13.6666 17.3334 12.9166 17.3334 11.9999V1.99992C17.3334 1.08325 16.5834 0.333252 15.6667 0.333252ZM15.3334 3.87492L9.44175 7.55825C9.17508 7.72492 8.82508 7.72492 8.55842 7.55825L2.66675 3.87492C2.58319 3.82801 2.51001 3.76464 2.45166 3.68863C2.3933 3.61262 2.35097 3.52557 2.32723 3.43273C2.30349 3.33989 2.29883 3.2432 2.31355 3.14851C2.32826 3.05382 2.36203 2.9631 2.41282 2.88184C2.4636 2.80058 2.53035 2.73046 2.60902 2.67575C2.68769 2.62103 2.77664 2.58284 2.87049 2.5635C2.96435 2.54416 3.06115 2.54406 3.15504 2.56321C3.24894 2.58236 3.33797 2.62036 3.41675 2.67492L9.00008 6.16658L14.5834 2.67492C14.6622 2.62036 14.7512 2.58236 14.8451 2.56321C14.939 2.54406 15.0358 2.54416 15.1297 2.5635C15.2235 2.58284 15.3125 2.62103 15.3911 2.67575C15.4698 2.73046 15.5366 2.80058 15.5873 2.88184C15.6381 2.9631 15.6719 3.05382 15.6866 3.14851C15.7013 3.2432 15.6967 3.33989 15.6729 3.43273C15.6492 3.52557 15.6069 3.61262 15.5485 3.68863C15.4902 3.76464 15.417 3.82801 15.3334 3.87492Z" fill="#BDBDBD"/>
</svg>

<svg xmlns="http://www.w3.org/2000/svg" width="18" height="14" fill="none"  xmlns:v="https://vecta.io/nano"><path d="M15.667.333H2.333C1.417.333.675 1.083.675 2L.667 12a1.67 1.67 0 0 0 1.667 1.667h13.333A1.67 1.67 0 0 0 17.333 12V2A1.67 1.67 0 0 0 15.667.333zm-.333 3.542L9.442 7.558c-.267.167-.617.167-.883 0L2.667 3.875a.71.71 0 0 1-.34-.442.71.71 0 0 1 .086-.551.71.71 0 0 1 .458-.318.71.71 0 0 1 .546.111L9 6.167l5.583-3.492a.71.71 0 0 1 .546-.111.71.71 0 0 1 .261.112c.08.055.146.125.196.206a.71.71 0 0 1 .099.267c.015.095.01.19-.014.284s-.066.18-.124.256-.132.14-.215.186z" fill="#bdbdbd"/></svg>
